X:2
T:Farfars vals
R:Vals
Z:Klas Krantz, 2008
H:Pelle Stenelius gav mig ett gammal notfragment av en "frlorad" lt efter hans morfars far, spelmannen Oskar Persson (1883-1971). Dokumentet var svrtolkat och vissa delar r drfr extrapoleringar. Arbetet tog lng tid. Tolkningen fick dock godknt av Pelles kvarvarande ldre slktingar som i sin ungdom hrt lten.
O:Dalsland
S:efter Oskar Persson
L:1/8
M:3/4
K:D
A,2 |: "D"A,2,F2>D2 | A,4A,2 | A,2,F2>D2 | A6 |A2B2d2 | A4F2 | 
D2>C2D2| "A7"C6 |C2E2>C2 | A4A2 | A2c2>A2| g6 |a2>A2a2 | 
f4e2 | "D"d6- |1 d2z2A,2 :|2 d2z2A2 |:"D"A2f2>d2 | A4A2 | 
A2f2>d2 | a6 |A2B2c2 | "Bm"d2>d2d2 | "Bm/F#"~d2"B7"B2"Em"G2 | B,6 |E2>E2E2 | 
E2G2B2 | "D"A2>A2A2 | A2F2D2 | "A7"E2>E2E2 | E2C2A,2 | "D"D2>D2D2 | D4A2 :|
K:A 
|: "A"E2CEAc | B4A2 | "D"F2DFAd | "Bm"f6 | "E7"e2B2G2 | 
E4E2 | FE^DEFE | "A"C6 | E2CEAc | B4A2 | "D"F2DFAd | 
"Bm"f6 | "E7"e2E2G2 | d2B2G2 | "A"AceAce | a4A2 :|
K:D
|: "D"f2d2A2 | F4A2 | BA^GA"B7/D#"BA | "Em"G6 |"A7"G2E2C2 | 
A,4A,2 | B,A,^G,A,B,A, | "D"D6 | f2d2A2 | F4A2 | BA^GA"B7/D#"BA | 
"Em"G6 | "G"B2c2d2 | "D"A2d2>f2 | "E7"e2B2"A7"c2 | "D"d4 :|]
